X: 3142
T: Beautiful Gortree
R: reel
M: 4/4
K: Dmajor
FE|:D2 FA B3d|feed BAFE|D2 FA ABdB|AFDF (3EFG FE|
D2 FA f2 af|edfe dBAz|f2 ed BddB|1 AFEF D2 D/D/D:|2 AFEF Dz ed||
|:f2 ed adfd|de (3fed BdA z|f2 ed ad(3fed|ABBA BBde|
f2 ed ad(3fed|de (3fed BdAz|f2 ed BddB|1 AFEF D z (3fed:|2 AFEF Dz dB||
|:AD D/D/D D2FA|BAFA f2 af|edfe dBAd|f2 ed BAFE|
D3 E FEDF|AAFA f2 af|e3 d fedB|1 AFEF Dz dB:|2 AFEF D4||

